!!!COM:	de Orto, Marbrianus
!!!CDT:	~1460///-1529//
!!!OPR:	Missa Mi mi (Missa Petite camusette)
!!!ONM:	4
!!!OTL:	Sanctus
!!!AGN:	Mass; Sanctus
!!!SCT:	Ort1005d
!!!SCA:	Ort1005d
!!!voices-OPR:	4
!!!voices:	4
**kern	**kern	**kern	**kern
*staff4	*staff3	*staff2	*staff1
*Ivox	*Ivox	*Ivox	*Ivox
*I"Bassus	*I"Tenor	*I"Altus	*I"Discantus
*I'B	*I'T	*I'A	*I'D
*>[A,B,C,D,E,C]	*>[A,B,C,D,E,C]	*>[A,B,C,D,E,C]	*>[A,B,C,D,E,C]
*>A	*>A	*>A	*>A
*clefF4	*clefGv2	*clefGv2	*clefG2
*k[]	*k[]	*k[]	*k[]
*M3/1	*M3/1	*M3/1	*M3/1
*met(O)	*met(O)	*met(O)	*met(O)
!!section: Sanctus
!!!OMD: Sanctus
=1-	=1-	=1-	=1-
1r	0.r	1G	0.r
1r	.	2.A/	.
.	.	4c\	.
1G	.	1B	.
=2	=2	=2	=2
2.A\	0.r	1A	1r
4c\	.	.	.
1B	.	1E	1g
1A	.	1F	2.a/
.	.	.	4cc\
=3	=3	=3	=3
1E	0.r	2G/	1b
.	.	2B\	.
1r	.	2c\	2.a/
.	.	2d\	.
.	.	.	4g/
1r	.	2c\	2e/
.	.	2A/	[2a/
=4	=4	=4	=4
1E	0.r	1B	2a/]
.	.	.	2g#i/
2.F\	.	2A/	1a
.	.	1c	.
4A\	.	.	.
1G	.	.	2r
.	.	2B\	2d/
=5	=5	=5	=5
1F	0.r	2.c\	2.a/
.	.	4A/	4g/
1C	.	4c\	2e/
.	.	4d\	.
.	.	1e	2g/
1r	.	.	1f
.	.	2d\	.
=6	=6	=6	=6
1r	0.r	2e\	2e/
.	.	2.f\	2a/
1C	.	.	1g
.	.	4e\	.
.	.	1e	.
2.D\	.	.	2r
.	.	[2d\	[2a/
4F\	.	.	.
=7	=7	=7	=7
1E	0.r	2d\]	4a/]
.	.	.	4g/
.	.	2c#i\	2g/
2.D\	.	1d	1f
4C/	.	.	.
1AA	.	2r	2.e/
.	.	[2cni\	.
.	.	.	4d/
=8	=8	=8	=8
1r	0.r	2cni\]	2c/
.	.	2B\	2d/
1r	.	2c\	2c/
.	.	2G/	1g
1D	.	1A	.
.	.	.	2f/
=9	=9	=9	=9
2.E\	0.r	2G/	2g/
.	.	2B\	1e
4G\	.	.	.
1F	.	2c\	.
.	.	2A/	2d/
2.E\	.	1B	1e
4D\	.	.	.
=10	=10	=10	=10
1BB	0.r	2r	1d
.	.	2.d\	.
1r	.	.	2r
.	.	4e\	.
.	.	2.f\	2.a/
1r	.	.	.
.	.	4e\	4g/
.	.	2c\	2e/
=11	=11	=11	=11
1BB	0.r	1d	2d/
.	.	.	2f/
2.C/	.	2c\	2e/
.	.	1c	2g/
4E\	.	.	.
1D	.	.	1f
.	.	2B\	.
=12	=12	=12	=12
1C	[0.G	1c	1e
0GG	.	0d	2r
.	.	.	1b
.	.	.	2b\
=13	=13	=13	=13
2.C/	0.G]	1e	1cc
4D\	.	.	.
1E	.	[0e	0b
1E	.	.	.
=14	=14	=14	=14
2.AA/	[0.A	1e]	2.a/
4BB/	.	.	4g/
2C/	.	2r	2e/
2D\	.	2d\	2f/
1AA	.	1c	2e/
.	.	.	[2a/
=15	=15	=15	=15
2.D\	0.A]	1d	4a/]
.	.	.	4g/
.	.	.	4f/
4C/	.	.	4e/
2D\	.	1r	2f/
2E\	.	.	1e
1F	.	1r	.
.	.	.	2d/
=16	=16	=16	=16
0E	0.B	0G	2e/
.	.	.	2.g/
.	.	.	4f/
.	.	.	2e/
1G	.	2r	2.d/
.	.	2d\	.
.	.	.	4c/
=17	=17	=17	=17
1F	0.c	1f	1A
2.C/	.	1.e	1G
4D\	.	.	.
2E\	.	.	1r
2F\	.	2A/	.
=18	=18	=18	=18
2G\	0.B	2d\	2.g/
2E\	.	2e\	.
.	.	.	4a/
2r	.	2d\	2b\
2D\	.	2f\	1a
1E	.	1e	.
.	.	.	2g#i/
=19	=19	=19	=19
2AA/	1A	2.c\	1a
2A\	.	.	.
.	.	4B\	.
2.c\	1r	2.A/	1r
4B\	.	4G/	.
1A	1r	2F/	1cc
.	.	2c\	.
=20	=20	=20	=20
2G\	0.r	2.d\	2b\
1F	.	.	1a
.	.	4c\	.
.	.	2A/	.
1E	.	2B\	2g/
.	.	2c\	1f
2D\	.	2d\	.
=21	=21	=21	=21
2E\	0.r	2B\	2e/
2F\	.	2A/	1d
2G\	.	2B\	.
2A\	.	1A	2c/
1E	.	.	1B
.	.	2G#i/	.
=22	=22	=22	=22
1AA	0.r	2.A/	2A/
.	.	.	2.c/
.	.	4G/	.
1C	.	2E/	.
.	.	.	4B/
.	.	2c\	2e/
2r	.	2B\	2d/
2D\	.	[2d\	[2f/
=23	=23	=23	=23
1E	0.r	2d\]	4f/]
.	.	.	4e/
.	.	2c\	2g/
2D\	.	2d\	2f/
2C/	.	2e\	2.cc\
1F	.	2c\	.
.	.	.	4b\
.	.	2f\	2a/
=24	=24	=24	=24
2C/	0.r	2e\	2g/
2F\	.	2c\	2.a/
2D\	.	2d\	.
.	.	.	4g/
2E\	.	2G/	1g
1D	.	1A	.
.	.	.	2f#i/
=25	=25	=25	=25
0GG	[0.B	1G	0g
.	.	2r	.
.	.	2G/	.
1GG	.	2D/	1r
.	.	2E/	.
=26	=26	=26	=26
2r	0.B]	2D/	1r
1G	.	2d\	.
.	.	2B\	2d/
2E\	.	2G/	2e/
2G\	.	1r	2d/
2E\	.	.	[2e/
=27	=27	=27	=27
2A\	0.c	1r	2e/]
2F\	.	.	2f/
2.A\	.	2.c\	2e/
.	.	.	2a/
4G\	.	4d\	.
2E\	.	2e\	2g/
2A\	.	2f\	[2cc\
=28	=28	=28	=28
1G	0d	1g	2cc\]
.	.	.	2b\
2r	.	2f\	2a/
2G\	.	2g\	2.b\
2A\	1c	2e\	.
.	.	.	4a/
2F\	.	2f\	2a/
=29	=29	=29	=29
2C/	0c	2e\	2g/
2.F\	.	2c\	1a
.	.	1r	.
4G\	.	.	.
2A\	.	.	2.a/
1E	[1B	1r	.
.	.	.	4g/
.	.	.	2g/
=30	=30	=30	=30
1D	1B]	2r	2f/
.	.	2F/	2d/
2C/	0c	2E/	2e/
2.FF/	.	2F/	2.a/
.	.	1C	.
4GG/	.	.	4g/
[2AA/	.	.	4f/
.	.	.	4e/
=31	=31	=31	=31
2AA/]	1B	2r	1d
2GG/	.	2G/	.
2.AA/	1A	1E	1c
4BB/	.	.	.
2D\	2B\	2F/	1r
2E\	[2c\	2G/	.
=32	=32	=32	=32
2AA/	2c\]	2A/	0.r
2C/	4B\	4G/	.
.	4A/	4F/	.
2BB/	2G/	4E/	.
.	.	4D/	.
2AA/	1A	2C/	.
1BB	.	1D	.
.	2G#i/	.	.
=33	=33	=33	=33
2AA/	0A	2E/	2c/
2A\	.	2D/	2f/
2.c\	.	2A/	2e/
.	.	2c\	2a/
8B\L	.	.	.
8A\J	.	.	.
2G\	1r	2d\	2b\
2F\	.	2f\	[2cc\
=34	=34	=34	=34
1A	0.r	2.e\	2cc\]
.	.	.	4b\
.	.	8d\L	4a/
.	.	8c\J	.
2E\	.	2B\	2g/
2F\	.	2A/	1a
1E	.	1B	.
.	.	.	2g#i/
=35	=35	=35	=35
0.AAl	0.Al	4A/	0.al
.	.	4G/	.
.	.	4F/	.
.	.	4E/	.
.	.	1F	.
.	.	1El	.
!!LO:LB:i:g=z
=36||	=36||	=36||	=36||
*>B	*>B	*>B	*>B
*clefF4	*clefGv2	*clefGv2	*clefG2
*k[]	*k[]	*k[]	*k[]
*M2/1	*M2/1	*M2/1	*M2/1
*met(C|)	*met(C|)	*met(C|)	*met(C|)
!!section: Pleni sunt celi
!!!OMD: Pleni sunt celi
1.E	0r	0G	0r
4D\	.	.	.
4C/	.	.	.
=37	=37	=37	=37
2BB/	0r	2.G/	0r
2C/	.	.	.
.	.	4A/	.
2D\	.	4B\	.
.	.	4A/	.
[2E\	.	[2c\	.
=38	=38	=38	=38
2E\]	0r	2c\]	0r
4D\	.	1A	.
4C/	.	.	.
1BB	.	.	.
.	.	2G#i/	.
=39	=39	=39	=39
1AA	0r	2.A/	1e
.	.	4G/	.
1r	.	2E/	2.e/
.	.	[2c\	.
.	.	.	4f/
=40	=40	=40	=40
0r	0r	4c\]	2g/
.	.	4B\	.
.	.	4A/	2.a/
.	.	4G/	.
.	.	2F/	.
.	.	.	4g/
.	.	[2A/	4f/
.	.	.	4e/
=41	=41	=41	=41
0r	0r	4A/]	2f/
.	.	4G/	.
.	.	4F/	1e
.	.	4E/	.
.	.	1F	.
.	.	.	2d/
=42	=42	=42	=42
2.AA/	0r	1E	1.e
4BB/	.	.	.
4C/	.	1r	.
4D\	.	.	.
4E\	.	.	4d/
4F\	.	.	4c/
=43	=43	=43	=43
2G\	0r	0r	2B/
2A\	.	.	2c/
2B\	.	.	2d/
[2c\	.	.	[2e/
=44	=44	=44	=44
2c\]	0r	0r	2e/]
1A	.	.	2c/
.	.	.	1B
2G#i\	.	.	.
=45	=45	=45	=45
1A	0r	4A/	2r
.	.	4B\	.
.	.	4c\	4A/
.	.	4d\	4B/
2r	.	4e\	4c/
.	.	4f\	4d/
[2c\	.	2g\	4e/
.	.	.	4f/
=46	=46	=46	=46
2c\]	0r	2e\	2g/
2F\	.	2f\	2a/
2G\	.	2d\	2b\
2E\	.	2e\	[2cc\
=47	=47	=47	=47
1F	0r	1A	2cc\]
.	.	.	1a
1E	.	1B	.
.	.	.	2g#i/
=48	=48	=48	=48
1AA	0r	4A/	1a
.	.	4B\	.
.	.	4c\	.
.	.	4d\	.
2GG/	.	2B\	1r
[2AA/	.	2A/	.
=49	=49	=49	=49
4AA/]	0r	2.E/	1r
4BB/	.	.	.
4C/	.	.	.
4D\	.	4F/	.
2BB/	.	2G/	2d/
2AA/	.	2C/	[2e/
=50	=50	=50	=50
1r	0r	1c	4e/]
.	.	.	4f/
.	.	.	4g/
.	.	.	4a/
2r	.	2d\	2f/
[2C/	.	[2e\	2e/
=51	=51	=51	=51
4C/]	0r	4e\]	1r
4D\	.	4d\	.
4E\	.	2c\	.
4F\	.	.	.
2D\	.	2B\	2r
2C/	.	[2c\	[2e/
=52	=52	=52	=52
1r	0r	4c\]	4e/]
.	.	4d\	4f/
.	.	4e\	4g/
.	.	4f\	4a/
2r	.	2d\	2f/
[2AA/	.	2c\	2e/
=53	=53	=53	=53
4AA/]	0r	1r	4c/
4BB/	.	.	4d/
4C/	.	.	4e/
4D\	.	.	4f/
2BB/	.	2G/	2d/
[2AA/	.	4A/	2c/
.	.	4B\	.
=54	=54	=54	=54
2AA/]	0r	4c\	0r
.	.	4d\	.
2.D\	.	2B\	.
.	.	2.A/	.
4E\	.	.	.
4F\	.	.	.
4G\	.	4B\	.
=55	=55	=55	=55
2E\	0r	2c\	0r
1D	.	1d	.
[2G\	.	2B\	.
=56	=56	=56	=56
2G\]	0r	1A	1r
2F#i\	.	.	.
1G	.	1G	2d/
.	.	.	[2e/
=57	=57	=57	=57
4A\	0r	0r	4e/]
4G\	.	.	4f/
4F\	.	.	4g/
4E\	.	.	4a/
2D\	.	.	2f/
2E\	.	.	[2e/
=58	=58	=58	=58
1F	0r	2r	2e/]
.	.	2.A/	2d/
1r	.	.	2e/
.	.	4B\	.
.	.	4c\	[2a/
.	.	4d\	.
=59	=59	=59	=59
1E	0r	1B	2a/]
.	.	.	2g/
1F	.	2r	2.a/
.	.	[2A/	.
.	.	.	4b\
=60	=60	=60	=60
2D\	0r	2A/]	4cc\
.	.	.	4dd\
2E\	.	2G/	2b\
2r	.	2.c\	2a/
4AA/	.	.	[2cc\
4BB/	.	4B\	.
=61	=61	=61	=61
4C/	0r	2G/	4cc\]
4D\	.	.	4b\
4E\	.	2c\	2g/
4F\	.	.	.
2G\	.	2B\	2b\
2D\	.	[2d\	[2a/
=62	=62	=62	=62
2F\	0r	2d\]	4a/]
.	.	.	4g/
2G\	.	4c\	1g
.	.	4B\	.
1D	.	1A	.
.	.	.	2f#i/
=63	=63	=63	=63
1GG	0G	1G	1g
1G	.	1r	1r
=64	=64	=64	=64
0E	0G	1.B	0r
.	.	2E/	.
=65	=65	=65	=65
0E	0G#	2.B\	0r
.	.	4c\	.
.	.	1B	.
=66	=66	=66	=66
0AA	0A	0A	1.e
.	.	.	2A/
=67	=67	=67	=67
0r	0A	0c	2.e/
.	.	.	4f/
.	.	.	1e
=68	=68	=68	=68
1D	1A	1d	1f
1E	1G	1B	2.g/
.	.	.	4f/
=69	=69	=69	=69
0G	0B	1G	1d
.	.	1r	1d
=70	=70	=70	=70
1C	0c	1G	1c
1AA	.	1C	1r
=71	=71	=71	=71
1GG	1B	1G	0r
[1G	1G	1E	.
=72	=72	=72	=72
2G\]	0A	1r	0cc
4F#i\	.	.	.
4E\	.	.	.
1F#i	.	1A	.
=73	=73	=73	=73
1G	0G	1d	1b
1E	.	[1e	1g
=74	=74	=74	=74
0F	0r	2e\]	0a
.	.	4d\	.
.	.	4c\	.
.	.	1d	.
=75	=75	=75	=75
1E	0B	0e	1g
1E	.	.	1r
=76	=76	=76	=76
2.F\	1A	1A	2.c/
4E\	.	.	4d/
2D\	[1A	2F/	4e/
.	.	.	4f/
2C/	.	[2c\	[2e/
=77	=77	=77	=77
1AA	1A]	4c\]	2e/]
.	.	4d\	.
.	.	1.e	4d/
.	.	.	4c/
1E	1G	.	1B
=78	=78	=78	=78
2.F\	1A	1c	4A/
.	.	.	4B/
.	.	.	4c/
4E\	.	.	4d/
2.C/	1c	1g	2.e/
4D\	.	.	4f/
=79	=79	=79	=79
2E\	0B	2e\	2g/
2D\	.	2f\	1a
1E	.	1e	.
.	.	.	2g#i/
=80	=80	=80	=80
0AAl	0Al	0el	0al
!!LO:LB:i:g=z
=81||	=81||	=81||	=81||
*>C	*>C	*>C	*>C
*clefF4	*clefGv2	*clefGv2	*clefG2
*k[]	*k[]	*k[]	*k[]
*M3/1	*M3/1	*M3/1	*M3/1
*met(O/3)	*met(O/3)	*met(O/3)	*met(O/3)
!!section: Osanna
!!!OMD: Osanna
1.A	1A	0A	1e
.	1c	.	1e
2G\	.	.	.
1F	1d	1A	1a
=82	=82	=82	=82
1E	0e	0c	1g
0F	.	.	0a
.	1d	1A	.
=83	=83	=83	=83
0E	0e	1B	1.g
.	.	1c	.
.	.	.	2a/
1E	1e	1G	2b\
.	.	.	2a/
=84	=84	=84	=84
1C	1e	1.g	1cc
0G	1.d	.	1.b
.	.	2f\	.
.	.	[1d	.
.	2c\	.	2a/
=85	=85	=85	=85
1F	1A	1d]	0a
0E	0B	0e	.
.	.	.	1g#i
=86	=86	=86	=86
0AA	1A	1e	1a
.	1r	0c	1e
1r	1r	.	1a
=87	=87	=87	=87
1E	0.r	1B	1g
0A	.	1.c	1.f
.	.	2B\	2e/
=88	=88	=88	=88
1G	0.r	0B	0e
0F	.	.	.
.	.	1A	1d
=89	=89	=89	=89
0E	0.B	0B	0.e
1r	.	1G	.
=90	=90	=90	=90
1D	[0.B	0.d	1r
0G	.	.	1r
.	.	.	1d
=91	=91	=91	=91
1E	1B]	0.r	1.g
0D	0B	.	.
.	.	.	2f/
.	.	.	1f
=92	=92	=92	=92
1.C	0c	0e	1e
.	.	.	0g
2D\	.	.	.
1E	1B	1e	.
=93	=93	=93	=93
0F	1A	1c	0a
.	0d	1A	.
[1G	.	1B	1d
=94	=94	=94	=94
1G]	1B	0d	1.g
0D	0A	.	.
.	.	.	2f#i/
.	.	1d	2f#i/
.	.	.	2e/
=95	=95	=95	=95
0GG	0.G	1.B	0g
.	.	2c\	.
1r	.	1d	1r
=96	=96	=96	=96
1.C	0.r	1G	1e
.	.	1A	1e
2AA/	.	.	.
1BB	.	1G	1d
=97	=97	=97	=97
0AA	1A	1c	1e
.	1A	2.e\	2c/
.	.	.	2A/
.	.	4c\	.
1r	1G	1d	1B
=98	=98	=98	=98
1A	0A	1c	1A
1.c	.	0e	1r
.	1r	.	1r
2B\	.	.	.
=99	=99	=99	=99
2A\	0.r	1f	0a
2G\	.	.	.
0F	.	0d	.
.	.	.	1a
=100	=100	=100	=100
1E	0.r	1e	1g
1F	.	2.c\	2.a/
.	.	4A/	4b\
1E	.	1B	1g
=101	=101	=101	=101
0AA	1A	1c	1a
.	1A	1A	1cc
1r	1G	1E	1b
=102	=102	=102	=102
0AA	1A	0e	0a
.	1c	.	.
1E	1B	1e	1g
=103	=103	=103	=103
1.F	1A	1c	1.a
.	1.c	1A	.
2E\	.	.	2g/
1C	.	1G	[1e
.	2B\	.	.
=104	=104	=104	=104
1E	1G	1c	2e/]
.	.	.	2g/
0D	1.A	0d	1.f
.	2G/	.	2e/
=105	=105	=105	=105
0.r	1E	1.B	1.e
.	0F	.	.
.	.	4A/	2d/
.	.	4G/	.
.	.	1A	2d/
.	.	.	2c/
=106	=106	=106	=106
0G	0E	0B	0e
1E	1r	1e	1r
=107	=107	=107	=107
1F	0.r	1c	0a
0D	.	0f	.
.	.	.	1a
=108	=108	=108	=108
1E	1B	1e	1g
1r	0e	0A	0cc
1r	.	.	.
=109	=109	=109	=109
0.r	1d	1r	1b
.	0f	1r	1.dd
.	.	1d	.
.	.	.	2a/
=110	=110	=110	=110
1C	1e	1.g	1cc
0G	1.d	.	1.b
.	.	2f\	.
.	.	2e\	.
.	2c\	2d\	2a/
=111	=111	=111	=111
1F	1A	1d	0a
0E	0B	0e	.
.	.	.	1g#i
=112	=112	=112	=112
0.AAl	0.Al	0.el	0.al
!!LO:LB:i:g=z
!!LO:TX:rj:i:Y=40:t=fine
=113||	=113||	=113||	=113||
*>D	*>D	*>D	*>D
*clefF4	*clefGv2	*clefGv2	*clefG2
*k[]	*k[]	*k[]	*k[]
*M2/1	*M2/1	*M2/1	*M2/1
*met(C|)	*met(C|)	*met(C|)	*met(C|)
!!section: Benedictus
!!!OMD: Benedictus
1G	0r	0r	0r
1A	.	.	.
=114	=114	=114	=114
1B	[0G	0r	0r
[1E	.	.	.
=115	=115	=115	=115
2E\]	0G]	0r	0r
4D\	.	.	.
4C/	.	.	.
2BB/	.	.	.
[2C/	.	.	.
=116	=116	=116	=116
2C/]	0A	0r	0r
2.D\	.	.	.
4C/	.	.	.
4BB/	.	.	.
4AA/	.	.	.
=117	=117	=117	=117
1GG	1B	0r	0r
2AA/	2c\	.	.
[2BB/	[2d\	.	.
=118	=118	=118	=118
4BB/]	4d\]	0r	0r
4AA/	4c\	.	.
4GG#i/	4B\	.	.
4FF#i/	4A/	.	.
1GG#i	1B	.	.
=119	=119	=119	=119
0AA	1A	[0e	0r
.	2r	.	.
.	[2c\	.	.
=120	=120	=120	=120
0r	4c\]	0e]	0r
.	4B\	.	.
.	4A/	.	.
.	4G/	.	.
.	1A	.	.
=121	=121	=121	=121
2.D\	1D	[0f	0r
4C/	.	.	.
2AA/	2r	.	.
[2BB-/	[2d\	.	.
=122	=122	=122	=122
2BB-/]	4d\]	0f]	0r
.	4c\	.	.
2C/	4B\	.	.
.	4A/	.	.
1D	1B	.	.
=123	=123	=123	=123
2C/	0r	2.e\	0r
2.c\	.	.	.
.	.	4f\	.
.	.	2g\	.
4B\	.	.	.
[2A\	.	[2f\	.
=124	=124	=124	=124
4A\]	0r	4f\]	0r
4G\	.	4e\	.
4F\	.	4d\	.
4E\	.	4c\	.
1F	.	1d	.
=125	=125	=125	=125
1.E	2.G/	1e	[0b
.	4A/	.	.
.	4B\	1r	.
.	4c\	.	.
[2BB/	[2d\	.	.
=126	=126	=126	=126
1BB]	4d\]	1r	0b]
.	4c\	.	.
.	4B\	.	.
.	4A/	.	.
1E	1G	2r	.
.	.	[2e\	.
=127	=127	=127	=127
1AA	1A	2e\]	[0cc
.	.	2.f\	.
2r	1r	.	.
.	.	4e\	.
[2A\	.	[2c\	.
=128	=128	=128	=128
4A\]	0r	4c\]	0cc]
4G\	.	4B\	.
4F\	.	4A/	.
4E\	.	4G/	.
1F	.	1A	.
=129	=129	=129	=129
0G	0r	4G/	2.b\
.	.	4A/	.
.	.	4B\	.
.	.	4c\	4a/
.	.	2.d\	4b\
.	.	.	4cc\
.	.	.	[2dd\
.	.	4c\	.
=130	=130	=130	=130
0r	2.G/	4B\	4dd\]
.	.	4A/	4cc\
.	.	4G/	4b\
.	4A/	4F/	4a/
.	1B	1E	1g
=131	=131	=131	=131
0r	2A/	2.F/	1a
.	2.c\	.	.
.	.	4G/	.
.	.	4A/	2.A/
.	4d\	4B\	.
.	[2e\	[2c\	.
.	.	.	4B/
=132	=132	=132	=132
1A	4e\]	2c\]	4c/
.	4d\	.	4d/
.	2c\	2A/	4e/
.	.	.	4f/
2G\	2B\	2B\	2g/
2F\	[2c\	2A/	2a/
=133	=133	=133	=133
2E\	2c\]	2e\	2g/
1F	2A/	2c\	2cc\
.	1d	1f	2a/
[2G\	.	.	[2b\
=134	=134	=134	=134
2G\]	2G/	1d	4b\]
.	.	.	4a/
2F\	2A/	.	1a
1E	1B	1e	.
.	.	.	2g#i/
=135	=135	=135	=135
0AAl	0Al	0el	0al
!!LO:LB:i:g=z
=136||	=136||	=136||	=136||
*>E	*>E	*>E	*>E
*clefF4	*clefGv2	*clefGv2	*clefG2
*k[]	*k[]	*k[]	*k[]
*M2/1	*M2/1	*M2/1	*M2/1
*met(C|)	*met(C|)	*met(C|)	*met(C|)
!!section: Qui venit
!!!OMD: Qui venit
0r	0r	1A	0r
.	.	1A	.
=137	=137	=137	=137
0r	0r	2F/	0r
.	.	1G	.
.	.	4F/	.
.	.	4E/	.
=138	=138	=138	=138
0r	0r	1D	1a
.	.	2r	1a
.	.	[2A/	.
=139	=139	=139	=139
0r	0r	2A/]	2f/
.	.	2B\	1g
.	.	1c	.
.	.	.	4f/
.	.	.	4e/
=140	=140	=140	=140
0r	0r	2d\	1d
.	.	1f	.
.	.	.	2r
.	.	4e\	[2A/
.	.	4d\	.
=141	=141	=141	=141
0r	0r	2c\	2A/]
.	.	2d\	2B/
.	.	1e	1c
=142	=142	=142	=142
1D	0r	1d	1d
1D	.	2r	1A
.	.	[2d\	.
=143	=143	=143	=143
2BB/	0r	2d\]	0r
1C	.	1e	.
4BB/	.	4d\	.
4AA/	.	4c\	.
=144	=144	=144	=144
1GG	0r	2.B\	2r
.	.	.	1d
.	.	4A/	.
1r	.	2B\	.
.	.	[2c\	[2e/
=145	=145	=145	=145
0r	0r	2c\]	2e/]
.	.	1A	4d/
.	.	.	4c/
.	.	.	1B
.	.	2G#i/	.
=146	=146	=146	=146
2r	0r	1A	2r
1D	.	.	2A/
.	.	1r	2B/
[2E\	.	.	[2c/
=147	=147	=147	=147
2E\]	0r	1r	2c/]
4D\	.	.	1A
4C/	.	.	.
1BB	.	2r	.
.	.	2d\	2G#i/
=148	=148	=148	=148
1AA	0r	2e\	1A
.	.	2.f\	.
1r	.	.	2r
.	.	4e\	.
.	.	4d\	2a/
.	.	4c\	.
=149	=149	=149	=149
1r	0r	2d\	2b\
.	.	1e	1cc
2r	.	.	.
2A\	.	4d\	4b\
.	.	4c\	4a/
=150	=150	=150	=150
2B\	0r	2B\	2g/
1c	.	1e	1a
4B\	.	4d\	4g/
4A\	.	4c\	4f/
=151	=151	=151	=151
2G\	0r	2B\	2e/
2F\	.	2A/	1a
1E	.	1B	.
.	.	.	2g#i/
=152	=152	=152	=152
4F\	0r	2r	1a
4E\	.	.	.
4D\	.	1A	.
4C/	.	.	.
1BB	.	.	1r
.	.	2G/	.
=153	=153	=153	=153
1AA	0r	4A/	2r
.	.	4G/	.
.	.	4F/	1a
.	.	4E/	.
1r	.	2F/	.
.	.	2E/	2g/
=154	=154	=154	=154
2AA/	0r	0r	4a/
.	.	.	4g/
1D	.	.	4f/
.	.	.	4e/
.	.	.	2f/
2C/	.	.	2e/
=155	=155	=155	=155
4D\	0r	1A	1r
4C/	.	.	.
4BB/	.	.	.
4AA/	.	.	.
2BB/	.	2G/	2d/
2AA/	.	4A/	4c/
.	.	4G/	4B/
=156	=156	=156	=156
1r	0r	4F/	4A/
.	.	4E/	4G/
.	.	2F/	2A/
1C	.	2E/	2G/
.	.	4c\	[2g/
.	.	4B\	.
=157	=157	=157	=157
1D	0r	4A/	2g/]
.	.	4G/	.
.	.	2A/	2f/
4E\	.	2G/	4g/
4D\	.	.	4f/
4C/	.	[2c\	4e/
4BB/	.	.	4d/
=158	=158	=158	=158
2AA/	0r	2c\]	2e/
2BB/	.	2d\	2d/
2C/	.	2c\	2e/
2D\	.	2A/	[2f/
=159	=159	=159	=159
1E	0r	2c\	4f/]
.	.	.	4e/
.	.	1B	1e
1F	.	.	.
.	.	2A/	2d/
=160	=160	=160	=160
1E	0r	1B	0e
1E	.	1r	.
=161	=161	=161	=161
1.G	0r	0r	1r
.	.	.	1e
2F\	.	.	.
=162	=162	=162	=162
1E	0r	1B	1.g
1D	.	1d	.
.	.	.	2f/
=163	=163	=163	=163
1r	0r	2c\	1e
.	.	2A/	.
1BB	.	1B	1d
=164	=164	=164	=164
1.D	0r	2A/	1r
.	.	2.d\	.
.	.	.	1g
.	.	4c\	.
2C/	.	[2A/	.
=165	=165	=165	=165
1BB	0r	2A/]	1.dd
.	.	2.G/	.
1AA	.	.	.
.	.	4F#i/	.
.	.	4F#i/	2cc\
.	.	4E/	.
=166	=166	=166	=166
1GG	1B	1G	1b
1r	[1d	2D/	2a/
.	.	[2G/	[2b\
=167	=167	=167	=167
0r	2d\]	2G/]	2b\]
.	2c\	2A/	1a
.	1B	1E	.
.	.	.	2g/
=168	=168	=168	=168
1D	1A	2r	1a
.	.	2.F/	.
[1F	1r	.	1r
.	.	4G/	.
.	.	4A/	.
.	.	4B\	.
=169	=169	=169	=169
1F]	0r	2c\	1a
.	.	1d	.
1E	.	.	[1g
.	.	[2c\	.
=170	=170	=170	=170
0D	1r	4c\]	2g/]
.	.	4B\	.
.	.	4A/	4f/
.	.	4G/	4e/
.	1B	1F	1f
=171	=171	=171	=171
1C	[0c	2r	2.e/
.	.	2G/	.
.	.	.	4f/
1r	.	2E/	2g/
.	.	[2F/	[2a/
=172	=172	=172	=172
1r	0c]	2F/]	2a/]
.	.	2E/	2g/
2r	.	2F/	2a/
4C/	.	2E/	[2g/
4D\	.	.	.
=173	=173	=173	=173
4E\	[0B	0r	2g/]
4F\	.	.	.
1G	.	.	4f/
.	.	.	4e/
.	.	.	2.d/
4F\	.	.	.
4E\	.	.	4e/
=174	=174	=174	=174
2D\	0B]	0r	2f/
2.E\	.	.	2.g/
4D\	.	.	4f/
2BB/	.	.	4e/
.	.	.	4d/
=175	=175	=175	=175
2C/	[0A	0r	2e/
1D	.	.	2d/
.	.	.	1e
2C/	.	.	.
=176	=176	=176	=176
2D\	0A]	0r	2d/
2C/	.	.	1e
2AA/	.	.	.
[2C/	.	.	2c/
=177	=177	=177	=177
2C/]	0G	1r	2.e/
4BB/	.	.	.
4AA/	.	.	4f/
1BB	.	2r	1d
.	.	2D/	.
=178	=178	=178	=178
0AA	1A	2E/	2r
.	.	2F/	2.c/
.	1A	2E/	.
.	.	.	4d/
.	.	2A/	4e/
.	.	.	4f/
=179	=179	=179	=179
0r	2B\	2G/	2g/
.	2.c\	2F/	2a/
.	.	2E/	2g/
.	4B\	.	.
.	2A/	[2e\	2cc\
=180	=180	=180	=180
2r	2G/	2e\]	2b\
2D\	1d	1f	2a/
1F	.	.	2r
.	2c\	2f\	2a/
=181	=181	=181	=181
1G	2B\	2d\	2.dd\
.	2.d\	2.g\	.
.	.	.	4cc\
1G	.	.	4b\
.	4c\	4f\	4a/
.	4B\	2d\	[2b\
.	4A/	.	.
=182	=182	=182	=182
2E\	2G/	2e\	2b\]
2F\	2A/	2d\	1a
1E	1B	1e	.
.	.	.	2g#i/
=183	=183	=183	=183
0AAl	0Al	0el	0al
!!LO:TX:i:Y=40:rj:t=Osanna ut supra
=||	=||	=||	=||
*-	*-	*-	*-
!!!RDF**kern: l=long note in original notation
!!!RDF**kern: i=editorial accidental
!!!ENC:	Jesse Rodin 8/9/2013
!!!END:	2013/08/09/
!!!EED:	Jesse Rodin
!!!EEV:	2013/08/10/
!!!ONB:	Translated from MusicXML and edited on 2013/08/10/ by Craig Sapp
!!muse2ps: T^@{OPR}^u^@{ONM}{. }@{OTL}^C^@{COM}^i2I150v85,85,85,150c180
